X:1
T: Evergreen Lasses
C:
R:Reel
Q: 232
K:G
M:4/4
L:1/8
G1/2F1/2|EF GA BF GE|D2 ((3FED) AD FD|EF GA BF Gc|Bd Ac BA GF|
EF GA BF GE|D2 ((3FED) AD FD|EF GA BF Gc|Bd Ac BG Gf|
|:gf ef gf eg|fd af bg af|gf ef gf ed|Bd Ac BE Ef|
gf ef gf eg|fg ag fd ef|g2 ba gf ed|1Bd Ac Bc ((3def):|2Bd Ac BA GF|
EF GA BF GE|D2 ((3FED) AD FD|EF GA BF Gc|Bd Ac BA GF|
EF GA BF GE|D2 ((3FED) AD FD|EF GA BF Gc|Bd Ac BG G||
